src/lib/assets/minus.svg

<?xml version="1.0" encoding="UTF-8" standalone="no"?>
<svg
   width="76.662"
   height="76.5"
   viewBox="0 0 76.662 76.5"
   version="1.1"
   id="svg4467"
   sodipodi:docname="minus.svg"
   inkscape:version="1.2.1 (9c6d41e410, 2022-07-14)"
   xmlns:inkscape="http://www.inkscape.org/namespaces/inkscape"
   xmlns:sodipodi="http://sodipodi.sourceforge.net/DTD/sodipodi-0.dtd"
   xmlns="http://www.w3.org/2000/svg"
   xmlns:svg="http://www.w3.org/2000/svg">
  <sodipodi:namedview
     id="namedview4469"
     pagecolor="#ffffff"
     bordercolor="#666666"
     borderopacity="1.0"
     inkscape:showpageshadow="2"
     inkscape:pageopacity="0.0"
     inkscape:pagecheckerboard="0"
     inkscape:deskcolor="#d1d1d1"
     showgrid="false"
     inkscape:zoom="9.3888878"
     inkscape:cx="38.130182"
     inkscape:cy="45.745567"
     inkscape:window-width="1440"
     inkscape:window-height="874"
     inkscape:window-x="0"
     inkscape:window-y="0"
     inkscape:window-maximized="1"
     inkscape:current-layer="svg4467" />
  <defs
     id="defs4461">
    <style
       id="style4459">
      .cls-1 {
        fill: #ff0048;
      }
    </style>
  </defs>
  <path
     id="Pfad_105"
     class="cls-1"
     d="M 38.29883,0 A 31.937,31.937 0 0 0 24.08398,3.52539 44.294,44.294 0 0 0 11.89063,12.625 46.239,46.239 0 0 0 3.28906,25.26758 a 38.421,38.421 0 0 0 -2.42383,7.07031 31.032,31.032 0 0 0 2.44141,21.21484 40.826,40.826 0 0 0 8.64063,11.73633 42.792,42.792 0 0 0 12.20898,8.14063 34.113,34.113 0 0 0 28.29102,0 42.927,42.927 0 0 0 12.23242,-8.13867 40.866,40.866 0 0 0 8.66406,-11.73633 30.942,30.942 0 0 0 2.45117,-21.2168 A 38.353,38.353 0 0 0 73.36133,25.26562 46.273,46.273 0 0 0 64.74023,12.62305 44.425,44.425 0 0 0 52.52539,3.5293 32,32 0 0 0 38.29883,0 Z m 0.006,3.5 a 26.929,26.929 0 0 1 12.66992,3.16602 40.89,40.89 0 0 1 11.23828,8.375 42.735,42.735 0 0 1 7.96289,11.67187 31.162,31.162 0 0 1 2.98633,12.89063 A 28.505,28.505 0 0 1 70.19155,52.0332 37.33,37.33 0 0 1 62.27162,62.75 39.389,39.389 0 0 1 51.05092,70.2207 31.859,31.859 0 0 1 38.29897,73 31.789,31.789 0 0 1 25.56264,70.2207 39.252,39.252 0 0 1 14.36342,62.75195 37.29,37.29 0 0 1 6.46303,52.03516 28.581,28.581 0 0 1 3.50209,39.60352 31.246,31.246 0 0 1 6.48061,26.71094 42.7,42.7 0 0 1 14.42202,15.03906 40.759,40.759 0 0 1 25.63491,6.66602 26.929,26.929 0 0 1 38.30483,3.5 Z m -0.92774,36.88672 c -6.1e-4,3.3e-4 -0.003,0.002 -0.004,0.002 0.001,-10e-4 0.003,-0.002 0.004,-0.002 z" />
  <path
     id="Pfad_107"
     data-name="Pfad 107"
     class="cls-1"
     d="m 57.61,40 h -36.6 a 1.75,1.75 0 0 1 -1.75,-1.75 1.75,1.75 0 0 1 1.75,-1.75 h 36.6 a 1.75,1.75 0 0 1 1.75,1.75 1.75,1.75 0 0 1 -1.75,1.75 z" />
</svg>

<svg width="76.662" height="76.5" version="1.1" id="svg4467" xmlns="http://www.w3.org/2000/svg"><defs id="defs4461"><style id="style4459">.cls-1{fill:#ff0048}</style></defs><path id="Pfad_105" class="cls-1" d="M38.299 0a31.937 31.937 0 0 0-14.215 3.525 44.294 44.294 0 0 0-12.193 9.1 46.239 46.239 0 0 0-8.602 12.643 38.421 38.421 0 0 0-2.424 7.07 31.032 31.032 0 0 0 2.442 21.215 40.826 40.826 0 0 0 8.64 11.736 42.792 42.792 0 0 0 12.21 8.14 34.113 34.113 0 0 0 28.29 0 42.927 42.927 0 0 0 12.233-8.138 40.866 40.866 0 0 0 8.664-11.736 30.942 30.942 0 0 0 2.45-21.217 38.353 38.353 0 0 0-2.433-7.072 46.273 46.273 0 0 0-8.62-12.643 44.425 44.425 0 0 0-12.216-9.094A32 32 0 0 0 38.3 0Zm.006 3.5a26.929 26.929 0 0 1 12.67 3.166 40.89 40.89 0 0 1 11.238 8.375 42.735 42.735 0 0 1 7.963 11.672 31.162 31.162 0 0 1 2.986 12.89 28.505 28.505 0 0 1-2.97 12.43 37.33 37.33 0 0 1-7.92 10.717 39.389 39.389 0 0 1-11.221 7.47A31.859 31.859 0 0 1 38.299 73a31.789 31.789 0 0 1-12.736-2.78 39.252 39.252 0 0 1-11.2-7.468 37.29 37.29 0 0 1-7.9-10.717 28.581 28.581 0 0 1-2.96-12.431A31.246 31.246 0 0 1 6.48 26.71a42.7 42.7 0 0 1 7.941-11.672 40.759 40.759 0 0 1 11.213-8.373A26.929 26.929 0 0 1 38.305 3.5Zm-.928 36.887-.004.002a.008.008 0 0 1 .004-.002z"/><path id="Pfad_107" data-name="Pfad 107" class="cls-1" d="M57.61 40h-36.6a1.75 1.75 0 0 1-1.75-1.75 1.75 1.75 0 0 1 1.75-1.75h36.6a1.75 1.75 0 0 1 1.75 1.75A1.75 1.75 0 0 1 57.61 40z"/></svg>
